X:16
T:Llangloffan
M:4/2
L:1/2
Q:60
C:Trad.
R:Hymn
K:G
B | E E F F | G>F E E | A A G G | F3 B | E E F F | G>A B A | G E F/2E/2
^D | E3 B | B G F A | G2 F E | ^D E A G | F3 B | E E F F | G>A B A | G/2
F/2 E F/2 E/2 ^D | E3 ||
